X:145
T:Nae Guid Luck,aka. RHu.144b
T:Scotch Set Of Quadrilles.#2. RHu.144b
S:R.Hughes MS,1823,Whitchurch,Shrops.
A:Whitchurch, Shropshire
Z:Tony Weatherall 2006
M:2/4
L:1/8
Q:1/4=100
K:Amaj
a>f ec|d>d dg|a>f ec|cBAg|!
a>f ec|d>d da|edcB|A3||!
(A/B/)|cccA|dddB|cccA|B3(A/B/)|!
cccA|defa|edcB|A3(A/B/)|!
c/^B/c/B/ c/A/=B/c/|d/c/d/c/ d/B/c/d/|c/e/a/g/ f/e/d/c/|cBB (A/B/)|!
c/^B/c/B/ c/A/B/c/|d/c/d/e/ f/g/a/f/|\
e3//f//d3//e// c3//d//B3//c//|A6||

